build/static/img/krechet_configurator/bottom/icon-facts.svg

<svg width="20" height="20" viewBox="0 0 20 20" fill="none" xmlns="http://www.w3.org/2000/svg">
<path d="M10.8751 7.244C10.5671 7.244 10.3058 7.13667 10.0911 6.922C9.87644 6.70733 9.76911 6.446 9.76911 6.138C9.76911 5.83 9.87644 5.56867 10.0911 5.354C10.3058 5.13 10.5671 5.018 10.8751 5.018C11.1831 5.018 11.4444 5.13 11.6591 5.354C11.8831 5.56867 11.9951 5.83 11.9951 6.138C11.9951 6.446 11.8831 6.70733 11.6591 6.922C11.4444 7.13667 11.1831 7.244 10.8751 7.244ZM9.92311 15.084C9.47511 15.084 9.11111 14.944 8.83111 14.664C8.56044 14.384 8.42511 13.964 8.42511 13.404C8.42511 13.1707 8.46244 12.8673 8.53711 12.494L9.48911 8H11.5051L10.4971 12.76C10.4598 12.9 10.4411 13.0493 10.4411 13.208C10.4411 13.3947 10.4831 13.53 10.5671 13.614C10.6604 13.6887 10.8098 13.726 11.0151 13.726C11.1831 13.726 11.3324 13.698 11.4631 13.642C11.4258 14.1087 11.2578 14.468 10.9591 14.72C10.6698 14.9627 10.3244 15.084 9.92311 15.084Z" fill="#0980B7"/>
<circle cx="10" cy="10" r="9.5" stroke="#0980B7"/>
</svg>

<svg width="20" height="20" fill="none" xmlns="http://www.w3.org/2000/svg"><path d="M10.875 7.244c-.308 0-.57-.107-.784-.322a1.067 1.067 0 0 1-.322-.784c0-.308.107-.57.322-.784.215-.224.476-.336.784-.336.308 0 .57.112.784.336.224.215.336.476.336.784 0 .308-.112.57-.336.784a1.067 1.067 0 0 1-.784.322zm-.952 7.84c-.448 0-.812-.14-1.092-.42-.27-.28-.406-.7-.406-1.26 0-.233.037-.537.112-.91L9.49 8h2.016l-1.008 4.76c-.037.14-.056.29-.056.448 0 .187.042.322.126.406.093.075.243.112.448.112.168 0 .317-.028.448-.084-.037.467-.205.826-.504 1.078a1.56 1.56 0 0 1-1.036.364z" fill="#0980B7"/><circle cx="10" cy="10" r="9.5" stroke="#0980B7"/></svg>
